X:1
T:Now in a song of grateful praise
T:Thomas Clark
T:p64, Peck’s Miscellaneous Collection of Sacred Music, vol. 3, ed. James Peck, London: (1810)
T:This edition by Edmund Gooch released into the public domain, Februrary 2016.
T:Now in a song of grateful praise
T:Finland. L.M.
C:Thomas Clark
Z:p64, Peck’s Miscellaneous
Z:Collection of Sacred Music,
Z:vol. 3, ed. James Peck,
Z:London: (1810)
%%score [ 1 2 3 4 ]
L:1/8
M:4/4
K:G
V:1 treble nm="Soprano" snm="S."
V:2 treble nm="Alto" snm="A."
V:3 treble-8 transpose=-12 nm="Tenor" snm="T."
V:4 bass nm="Bass" snm="B."
V:1
 B2 Bc d3 G | c2 B2 A2 z A | (BG)(Bd) e3 d | (^cA)(Bc) d3 d | e2 e2 e3 c | %5
w: When call’d to pass the|vale of death, If|in _ his _ arms I|lose _ my _ breath, O|then my hap- py|
w: Now in a song of|grate- ful praise To|my _ dear _ Lord my|voice _ I’ll _ raise: With|all his saints I’ll|
w: How sov- ’reign, and how|great his love; What|mer- * cies _ hath he|made _ me _ prove! Mer-|cies which do all|
 d2 d2 !fermata!d2!p! c2 | BAGe dcB!f!d | (e>f g)e (dBG)A | B2 A2 G4 |] %9
w: soul will tell, *||||
w: join to tell, My|Je- sus hath done all things well, my|Je- * * sus hath _ _ done|all things well.|
w: praise ex- cel; *||||
V:2
 D2 GF G3 G | (EF) G2 F2 z F | (GD)(DB,) C3 G | (ED)(DG) F3 G | G2 G2 G3 G | G2 G2 !fermata!G2 z2 | %6
w: When call’d to pass the|vale _ of death, If|in _ his _ arms I|lose _ my _ breath, O|then my hap- py|soul will tell,|
w: Now in a song of|grate- * ful praise To|my _ dear _ Lord my|voice _ I’ll _ raise: With|all his saints I’ll|join to tell,|
w: How sov- ’reign, and how|great _ his love; What|mer- * cies _ hath he|made _ me _ prove! Mer-|cies which do all|praise ex- cel;|
 z4 z2 z G | G3 G G3 G | G2 F2 G4 |] %9
w: |||
w: My|Je- sus hath done|all things well.|
w: |||
V:3
 d2 dc B3 d | c2 d2 d2 z d | (dB) G2 G3 G | (Ad)(BG) A3 B | c2 c2 c3 e | B2 B2 !fermata!B2 z2 | %6
w: When call’d to pass the|vale of death, If|in _ his arms I|lose _ my _ breath, O|then my hap- py|soul will tell,|
w: Now in a song of|grate- ful praise To|my _ dear Lord my|voice _ I’ll _ raise: With|all his saints I’ll|join to tell,|
w: How sov- ’reign, and how|great his love; What|mer- * cies hath he|made _ me _ prove! Mer-|cies which do all|praise ex- cel;|
 z4 z2 z B | (c>d e)c d3 e | d2 c2 B4 |] %9
w: |||
w: My|Je- * * sus hath done|all things well.|
w: |||
V:4
 G,2 G,"^6"A,"^6" B,3 B, |"^5""^6" A,2 G,2 D,2 z D, | G,2 G,2 C3"^6" B, | %3
w: When call’d to pass the|vale of death, If|in his arms I|
w: Now in a song of|grate- ful praise To|my dear Lord my|
w: How sov- ’reign, and how|great his love; What|mer- cies hath he|
"^#" (A,"^6"F,)(G,"^´"E,) D,3 G, | C2 C2 C3 C | %5
w: lose _ my _ breath, O|then my hap- py|
w: voice _ I’ll _ raise: With|all his saints I’ll|
w: made _ me _ prove! Mer-|cies which do all|
"^Notes: This setting is attributed in the source to ‘Mr. T. Clark’. It is marked at the top of the piece and in the index with an asterisk: a note below the index comments ‘The pieces marked * are copyright’. The parts are given in the order Alto - Tenor - Air - [Bass] in the source, with the Altoand Tenor parts notated in the treble clef an octave above sounding pitch. Only the first verse is underlaid in the source: the subsequent versesgiven here are printed after the music." G,2 G,2 !fermata!G,2"^["!p!"^]""^7" D,2 | %6
w: soul will tell, *|
w: join to tell, My|
w: praise ex- cel; *|
 G,"^6"A,"^6"B,C"^64" D"^7"D,G,"^["!f!"^]"G, | C,3 C,"^6" B,,3"^65" C, |"^64" D,2"^75" D,2 G,,4 |] %9
w: |||
w: Je- sus hath done all things well, my|Je- sus hath done|all things well.|
w: |||

